shield-link-variant.svg

<svg fill="currentColor" viewBox="0 0 24 24"><path d="M12 1 3 5v6c0 5.55 3.84 10.74 9 12 5.16-1.26 9-6.45 9-12V5zm2.28 13.08-2.02 2.02c-.6.6-1.39.9-2.18.9s-1.58-.3-2.18-.9a3.09 3.09 0 0 1 0-4.36l1.25-1.24-.01.56c0 .44.07.89.22 1.31l.05.13-.37.37c-.28.28-.44.66-.44 1.05 0 .4.16.77.44 1.05.56.56 1.53.56 2.09 0l2.01-2.01c.29-.29.44-.66.44-1.05 0-.41-.15-.77-.43-1.05a.83.83 0 0 1-.25-.57c0-.21.1-.41.25-.56.3-.31.85-.3 1.13 0 .58.58.9 1.35.9 2.17 0 .83-.32 1.6-.9 2.18m2.82-2.82-1.25 1.24.01-.56c0-.44-.07-.88-.22-1.3l-.04-.14.36-.37c.29-.28.44-.63.44-1.05 0-.39-.15-.76-.43-1.04-.57-.57-1.54-.57-2.1 0l-2.01 2.01c-.28.28-.44.65-.44 1.05s.15.76.44 1.04c.14.15.24.36.24.57 0 .22-.1.42-.25.57-.15.16-.35.22-.56.22-.2 0-.41-.07-.57-.22a3.054 3.054 0 0 1 0-4.36l2.02-2.02a3.09 3.09 0 0 1 4.36 0c.58.6.9 1.36.9 2.18s-.32 1.6-.9 2.18"/></svg>

<svg  viewBox="0 0 24 24" fill="currentColor"><path  d="M12,1L3,5V11C3,16.55 6.84,21.74 12,23C17.16,21.74 21,16.55 21,11V5L12,1M14.28,14.08L12.26,16.1C11.66,16.7 10.87,17 10.08,17C9.29,17 8.5,16.7 7.9,16.1C6.7,14.9 6.7,12.95 7.9,11.74L9.15,10.5L9.14,11.06C9.14,11.5 9.21,11.95 9.36,12.37L9.41,12.5L9.04,12.87C8.76,13.15 8.6,13.53 8.6,13.92C8.6,14.32 8.76,14.69 9.04,14.97C9.6,15.53 10.57,15.53 11.13,14.97L13.14,12.96C13.43,12.67 13.58,12.3 13.58,11.91C13.58,11.5 13.43,11.14 13.15,10.86C13,10.71 12.9,10.5 12.9,10.29C12.9,10.08 13,9.88 13.15,9.73C13.45,9.42 14,9.43 14.28,9.73C14.86,10.31 15.18,11.08 15.18,11.9C15.18,12.73 14.86,13.5 14.28,14.08M17.1,11.26L15.85,12.5L15.86,11.94C15.86,11.5 15.79,11.06 15.64,10.64L15.6,10.5L15.96,10.13C16.25,9.85 16.4,9.5 16.4,9.08C16.4,8.69 16.25,8.32 15.97,8.04C15.4,7.47 14.43,7.47 13.87,8.04L11.86,10.05C11.58,10.33 11.42,10.7 11.42,11.1C11.42,11.5 11.57,11.86 11.86,12.14C12,12.29 12.1,12.5 12.1,12.71C12.1,12.93 12,13.13 11.85,13.28C11.7,13.44 11.5,13.5 11.29,13.5C11.09,13.5 10.88,13.43 10.72,13.28C9.5,12.08 9.5,10.12 10.72,8.92L12.74,6.9C13.95,5.7 15.9,5.7 17.1,6.9C17.68,7.5 18,8.26 18,9.08C18,9.9 17.68,10.68 17.1,11.26Z"/></svg>
